svgs/thin/sack.svg

<svg xmlns="http://www.w3.org/2000/svg" viewBox="0 0 512 512"><!--! Font Awesome Pro 6.0.0-alpha3 by @fontawesome - https://fontawesome.com License - https://fontawesome.com/license (Commercial License) --><path d="M332.2 120h19.85c4.422 0 8-3.594 8-8s-3.578-8-8-8H159.1c-4.422 0-8 3.594-8 8s3.578 8 8 8h19.75c-189.1 119.2-179.7 272.2-179.7 292c0 55.25 49.14 100 109.6 100h292.5c60.62 0 109.7-44.75 109.7-100C511.9 392.6 520.2 238.6 332.2 120zM495.9 412c0 46.32-42.06 84-93.75 84h-292.5c-51.62 0-93.62-37.68-93.62-84C15.29 335 28.05 243.8 208.2 120h95.6C483.2 243.5 496.7 331.1 495.9 412zM181.5 84.69C184.1 88.25 189.1 89 192.7 86.5c3.578-2.594 4.391-7.594 1.797-11.19L160.8 28.69c-1.797-2.5-2.047-5.594-.6406-8.344C161.6 17.62 164.2 16 167.3 16h177.4c3.078 0 5.734 1.625 7.125 4.344c1.406 2.75 1.156 5.844-.6406 8.344l-33.67 46.63c-2.594 3.594-1.781 8.594 1.797 11.19c3.667 2.579 8.602 1.734 11.17-1.812l33.67-46.63c5.312-7.344 6.047-16.94 1.922-25S353.8 0 344.7 0H167.3C158.2 0 150 5 145.9 13.06s-3.391 17.66 1.922 25L181.5 84.69z"/></svg>

<svg xmlns="http://www.w3.org/2000/svg" viewBox="0 0 512 512"><!-- Font Awesome Pro 6.0.0-alpha2 by @fontawesome - https://fontawesome.com License - https://fontawesome.com/license (Commercial License) --><path d="M332.15 120H352.001C356.423 120 360.001 116.406 360.001 112S356.423 104 352.001 104H159.995C155.574 104 151.995 107.594 151.995 112S155.574 120 159.995 120H179.742C-9.35 239.195 0.078 392.227 0.078 412C0.078 467.25 49.203 512 109.701 512H402.199C462.822 512 511.947 467.25 511.947 412C511.947 392.598 520.156 238.611 332.15 120ZM495.947 412C495.947 458.316 453.89 496 402.199 496H109.701C58.078 496 16.078 458.316 16.078 412C15.287 335.001 28.047 243.753 208.16 120H303.759C483.18 243.458 496.657 331.991 495.947 412ZM181.515 84.688C184.109 88.25 189.078 89 192.687 86.5C196.265 83.906 197.078 78.906 194.484 75.312L160.812 28.688C159.015 26.188 158.765 23.094 160.171 20.344C161.562 17.625 164.218 16 167.296 16H344.703C347.781 16 350.437 17.625 351.828 20.344C353.234 23.094 352.984 26.188 351.187 28.688L317.515 75.312C314.921 78.906 315.734 83.906 319.312 86.5C322.979 89.079 327.913 88.234 330.484 84.688L364.156 38.063C369.468 30.719 370.203 21.125 366.078 13.063S353.765 0 344.703 0H167.296C158.234 0 150.046 5 145.921 13.062S142.531 30.719 147.843 38.062L181.515 84.688Z"/></svg>
